X: 2245
T: B B Per Sempre
R: reel
M: 4/4
K: Adorian
|:^gaeA cABG|EA^GB A=GED|E2 AB cdec|dgfd ~g3 ^g|
a2 eA cABG|EA^GB A=GED|E2 AB cdeg|1 edBG A ~a3:|2 edBG ~A3- A||
EAB ~c- c2 Bc|dg f/e/d ~g2 fg|g ~a2 b c'2 ac'|bagb ~a3 b|
c'2 ba a ~g2 a|~g3 a gedg|edcA BAGB|AGEG ~A3- A||

